app/images/icon/icon-pdf.svg

<svg width="36" height="38" viewBox="0 0 36 38" fill="none" xmlns="http://www.w3.org/2000/svg">
<path d="M8.65318 15.2305H6.34007C6.04959 15.2305 5.77099 15.3461 5.56585 15.5518C5.36071 15.7576 5.24601 16.0365 5.24695 16.3271L5.26306 24.6308C5.26306 25.2345 5.75248 25.7239 6.35618 25.7239C6.95987 25.7239 7.44929 25.2345 7.44929 24.6308V22.1095C7.89623 22.1073 8.37371 22.1053 8.65318 22.1053C10.5739 22.1053 12.1365 20.5633 12.1365 18.6679C12.1365 16.7725 10.5739 15.2305 8.65318 15.2305ZM8.65318 19.9191C8.37123 19.9191 7.89201 19.921 7.44332 19.9234C7.44099 19.458 7.43895 18.9568 7.43895 18.6679C7.43895 18.4206 7.43771 17.9031 7.4364 17.4167H8.65311C9.3562 17.4167 9.9502 17.9896 9.9502 18.6679C9.9502 19.3461 9.35627 19.9191 8.65318 19.9191Z" fill="#E93123"/>
<path d="M17.9512 15.2305H15.6681C15.3778 15.2305 15.0994 15.3459 14.8944 15.5513C14.6893 15.7568 14.5744 16.0354 14.575 16.3256C14.575 16.3257 14.5912 24.3597 14.5913 24.3889C14.5924 24.6789 14.7085 24.9565 14.9143 25.1608C15.1192 25.3641 15.396 25.4781 15.6844 25.4781H15.6885C15.7576 25.4778 17.3861 25.4716 18.0371 25.4602C20.5072 25.4171 22.2999 23.2697 22.2999 20.3543C22.2998 17.2896 20.5523 15.2305 17.9512 15.2305ZM17.999 23.2744C17.7158 23.2793 17.2288 23.2833 16.7739 23.2862C16.7708 22.3368 16.7648 18.4034 16.7632 17.4167H17.9512C19.9577 17.4167 20.1136 19.6652 20.1136 20.3543C20.1136 21.7894 19.4597 23.2488 17.999 23.2744Z" fill="#E93123"/>
<path d="M29.5042 17.3327C30.1079 17.3327 30.5973 16.8433 30.5973 16.2396C30.5973 15.6359 30.1079 15.1465 29.5042 15.1465H26.162C25.5583 15.1465 25.0688 15.6359 25.0688 16.2396V24.4859C25.0688 25.0896 25.5583 25.5791 26.162 25.5791C26.7657 25.5791 27.2551 25.0896 27.2551 24.4859V21.3778H29.2387C29.8424 21.3778 30.3318 20.8884 30.3318 20.2847C30.3318 19.681 29.8424 19.1916 29.2387 19.1916H27.2551V17.3327H29.5042Z" fill="#E93123"/>
<path d="M32.7206 10.5668H31.919V10.255C31.919 8.8498 31.3866 7.51438 30.4199 6.49458L25.8794 1.70519C24.852 0.621547 23.4063 0 21.913 0H7.36032C5.55209 0 4.08097 1.47112 4.08097 3.27935V10.5668H3.27935C1.47112 10.5668 0 12.0379 0 13.8462V26.9636C0 28.7718 1.47112 30.2429 3.27935 30.2429H4.08097V34.0324C4.08097 35.8406 5.55209 37.3117 7.36032 37.3117H28.6397C30.4479 37.3117 31.919 35.8406 31.919 34.0324V30.2429H32.7206C34.5289 30.2429 36 28.7718 36 26.9636V13.8462C36 12.0379 34.5289 10.5668 32.7206 10.5668ZM6.26721 3.27935C6.26721 2.67661 6.75758 2.18623 7.36032 2.18623H21.913C22.809 2.18623 23.6764 2.55913 24.2929 3.20939L28.8333 7.99878C29.4134 8.61063 29.7328 9.41189 29.7328 10.255V10.5668H6.26721V3.27935ZM29.7328 34.0324C29.7328 34.6351 29.2424 35.1255 28.6397 35.1255H7.36032C6.75758 35.1255 6.26721 34.6351 6.26721 34.0324V30.2429H29.7328V34.0324ZM33.8138 26.9636C33.8138 27.5663 33.3234 28.0567 32.7206 28.0567H3.27935C2.67661 28.0567 2.18623 27.5663 2.18623 26.9636V13.8462C2.18623 13.2434 2.67661 12.753 3.27935 12.753H32.7206C33.3234 12.753 33.8138 13.2434 33.8138 13.8462V26.9636Z" fill="#E93123"/>
</svg>

<svg width="36" height="38" fill="none" xmlns="http://www.w3.org/2000/svg">
    <path d="M8.653 15.23H6.34a1.093 1.093 0 0 0-1.093 1.097l.016 8.304a1.093 1.093 0 0 0 2.186 0V22.11c.447-.003.925-.005 1.204-.005 1.92 0 3.483-1.542 3.483-3.437 0-1.895-1.562-3.438-3.483-3.438Zm0 4.69-1.21.003-.004-1.255-.003-1.251h1.217c.703 0 1.297.573 1.297 1.25 0 .68-.594 1.252-1.297 1.252ZM17.951 15.23h-2.283a1.093 1.093 0 0 0-1.093 1.096l.016 8.063a1.093 1.093 0 0 0 1.093 1.09h.005c.069-.001 1.697-.007 2.348-.019 2.47-.043 4.263-2.19 4.263-5.106 0-3.064-1.748-5.123-4.349-5.123ZM18 23.274c-.283.005-.77.01-1.225.012-.003-.95-.01-4.883-.01-5.87h1.187c2.007 0 2.163 2.25 2.163 2.938 0 1.435-.654 2.895-2.115 2.92ZM29.504 17.333a1.093 1.093 0 0 0 0-2.186h-3.342c-.604 0-1.093.489-1.093 1.093v8.246a1.093 1.093 0 0 0 2.186 0v-3.108h1.984a1.093 1.093 0 0 0 0-2.186h-1.984v-1.86h2.25Z" fill="#E93123"/>
    <path d="M32.72 10.567h-.801v-.312c0-1.405-.532-2.74-1.5-3.76l-4.54-4.79A5.489 5.489 0 0 0 21.913 0H7.36a3.283 3.283 0 0 0-3.279 3.28v7.287h-.802A3.283 3.283 0 0 0 0 13.847v13.117a3.283 3.283 0 0 0 3.28 3.279h.801v3.79a3.283 3.283 0 0 0 3.28 3.279H28.64a3.283 3.283 0 0 0 3.279-3.28v-3.79h.802A3.283 3.283 0 0 0 36 26.965V13.846a3.283 3.283 0 0 0-3.28-3.28ZM6.268 3.279c0-.602.49-1.093 1.093-1.093h14.553c.896 0 1.763.373 2.38 1.023L28.833 8c.58.612.9 1.413.9 2.256v.312H6.267V3.279Zm23.466 30.753c0 .603-.49 1.094-1.093 1.094H7.36c-.602 0-1.093-.49-1.093-1.094v-3.79h23.466v3.79Zm4.08-7.068c0 .602-.49 1.093-1.092 1.093H3.279c-.602 0-1.093-.49-1.093-1.093V13.846c0-.603.49-1.093 1.093-1.093h29.442c.602 0 1.093.49 1.093 1.093v13.118Z" fill="#E93123"/>
</svg>
